X:8
T:The Teetotaller's Reel
M:C|
K:G
L:1/8
(3vDuE(vF | "G" G2) (GF) GAB(uc | dB) ge dBAc | "Em" uB(E{G}ED)     EFGA | "G" BG"D"A(uF GF)ED |
            "G" uG2 (GF) GAB(uc | dB) ge dBAc | "Em"  B(E{G}ED) "C" EFGA | "G" BG"D"A(uF "G" G2) :|
vGuA | "Em" B2 [e2B2] [e3e3] (f | {a}ge)af gfed | "D" vB2 d2 ~d3 (e | ~f3) (a "(Bm)" g)ufed |
            "Em" vB2 e2 [e3e3] (f | {a}ge)af gfed |      uB(E{G}ED) "C" EFGA | "G" BG"D"A(F "G" G2) :|

